X:1
T:Title
%%score { ( 1 3 ) | 2 }
L:1/8
M:4/4
K:Ab
V:1 treble nm="Grand Piano"
V:3 treble 
V:2 bass 
V:1
 z4 z2[Q:1/4=94] [CE]2 | [Ec]>[Ec] [Ec][Ec] [Ec]<[CA] [Ec][Fd] | [DB]6 z2 | %3
 B>A Gc [Ge]>[Fd] [Ge]>[Fd] | [Ec]6 z2 | [Ec]>[Ec] [Ec][Ec] [Ec]<[CA] [Ec][Fd] |[M:3/4] [DB]6 | %7
[M:1/4] B2 |[M:4/4] BAGA B<d c>B |[M:3/4] [CA]6 |[M:1/4] [Ace][_Ge_g] | %11
[M:4/4] [_Ge_g][Fdf][Fdf][Fd] [Fdf]2 [Geg][Fdf] | [Fdf][Ece][Ece][CEc] [Ece]2 [Ece][Fdf] | %13
 [ce][Bd][Bd][=Ac] [Bd][Ac][Bd][ce] | [Geg]>[Fdf] [Geg]>[Fdf] [Ece]2 [Ace][_Ge_g] | %15
 [_Ge_g][Fdf][Fdf][Fd] [Fdf]2 [Geg][Fdf] | [Fdf][Ece][Ece][CEc] [Ece]2 [Ece][Ece] | %17
 [ce][Bd][Bd][=Ac] [DB]2 [DB][ce] |[M:7/8] [Geg][Fdf][ce]>[Bd] [CAc]3 |] %19
V:2
 z4 z2 [A,,A,]2 | [A,,A,]>[A,,A,] [A,,A,][A,,A,] [A,,A,]<[A,,E,] [A,,A,][A,,A,] | %2
 [E,G,]2 F,2 G,2 [E,G,D]2 | [E,G,D]>[E,A,C] [E,B,][E,G,E] [E,B,]>[E,G,] [E,B,]>[E,G,] | %4
 [A,,A,]2 C,2 F,2 [E,A,C]2 | [A,,A,]>[A,,A,] [A,,A,][A,,A,] [A,,A,]<[A,,E,] [A,,A,][A,,A,] | %6
[M:3/4] [E,G,]2 F,2 G,2 |[M:1/4] [E,G,D]2 | %8
[M:4/4] [E,G,D][E,A,C][E,B,][E,A,C] [E,G,D]<[E,G,F] [E,G,E]>[E,G,D] | %9
[M:3/4] [A,,A,]2 (3E,F,E, A,,2 |[M:1/4] [A,,E,][A,,A,] | %11
[M:4/4] [D,A,][D,A,][D,A,][D,A,D] [D,A,]2 [D,A,][D,A,] | %12
 [A,,A,][A,,A,][A,,A,][A,,A,] [A,,A,]2 [A,,A,][A,,A,] | %13
 [E,G,E][E,G,D][E,G,D][E,_G,C] [E,=G,D][E,_G,C][E,=G,D][E,A,E] | %14
 [E,B,]>[E,G,] [E,B,]>[E,G,] [A,,A,]2 [A,,E,][C,A,] | %15
 [D,A,][D,A,][D,A,][D,A,D] [D,A,]2 [D,A,][D,A,] | %16
 [A,,A,][A,,A,][A,,A,][A,,A,] [A,,A,]2 [A,,A,][A,,A,] | %17
 [E,G,E][E,G,D][E,G,D][E,_G,C] [E,=G,]2 [E,G,][E,A,E] | %18
[M:7/8] [E,B,][E,G,][E,A,E]>[E,G,D] [A,,A,]3 |] %19
V:3
 x8 | x8 | z2 A,2 B,2 B2 | x8 | z2 A,2 A,2 E2 | x8 |[M:3/4] z2 A,2 B,2 |[M:1/4] x2 |[M:4/4] x8 | %9
[M:3/4] z2 A,2 A,2 |[M:1/4] x2 |[M:4/4] x8 | x8 | x8 | x8 | x8 | x8 | x8 |[M:7/8] x7 |] %19

